packages/design-assets/icons/24px/Connections.svg

<svg width="24" height="24" xmlns="http://www.w3.org/2000/svg"><path d="M2 20v2h2v-2H2zm18-9V9h2v2h2v2h-2v2h-2v-2h-2v-2h2zm0 9v-2h2v2h2v2h-2v2h-2v-2h-2v-2h2zm-9 0v-2h2v2h2v2h-2v2h-2v-2H9v-2h2zm-5-2v6H0v-6h6zm9-9v6H9V9h6zM6 9v6H0V9h6zm9-9v6H9V0h6zM6 0v6H0V0h6zm18 0v6h-6V0h6zM11 11v2h2v-2h-2zm-9 0v2h2v-2H2zm9-9v2h2V2h-2zM2 2v2h2V2H2zm18 0v2h2V2h-2z" fill="#818F99" fill-rule="evenodd"/></svg>

<?xml version="1.0" encoding="UTF-8"?>
<svg width="24px" height="24px" viewBox="0 0 24 24" version="1.1" xmlns="http://www.w3.org/2000/svg" xmlns:xlink="http://www.w3.org/1999/xlink">
    <!-- Generator: Sketch 54.1 (76490) - https://sketchapp.com -->
    <title>Icons/24px/Connections</title>
    <desc>Created with Sketch.</desc>
    <g id="Icons/24px/Connections" stroke="none" stroke-width="1" fill="none" fill-rule="evenodd">
        <path d="M2,20 L2,22 L4,22 L4,20 L2,20 Z M20,11 L20,9 L22,9 L22,11 L24,11 L24,13 L22,13 L22,15 L20,15 L20,13 L18,13 L18,11 L20,11 Z M20,20 L20,18 L22,18 L22,20 L24,20 L24,22 L22,22 L22,24 L20,24 L20,22 L18,22 L18,20 L20,20 Z M11,20 L11,18 L13,18 L13,20 L15,20 L15,22 L13,22 L13,24 L11,24 L11,22 L9,22 L9,20 L11,20 Z M6,18 L6,24 L0,24 L0,18 L6,18 Z M15,9 L15,15 L9,15 L9,9 L15,9 Z M6,9 L6,15 L0,15 L0,9 L6,9 Z M15,0 L15,6 L9,6 L9,0 L15,0 Z M6,0 L6,6 L0,6 L0,0 L6,0 Z M24,0 L24,6 L18,6 L18,0 L24,0 Z M11,11 L11,13 L13,13 L13,11 L11,11 Z M2,11 L2,13 L4,13 L4,11 L2,11 Z M11,2 L11,4 L13,4 L13,2 L11,2 Z M2,2 L2,4 L4,4 L4,2 L2,2 Z M20,2 L20,4 L22,4 L22,2 L20,2 Z" id="i-24-connections" fill="#818F99"></path>
    </g>
</svg>
